**harm	**harte	**timestamp	**phrase	**leadinstrument	**kern
*M4/4	*M4/4	*	*	*	*
*c#:	*c#:	*	*	*	*c#:
1r;	N	0	.	r	1r;
=1	=1	=1	=1	=1	=1
*>A_intro	*>A_intro	*>A_intro	*>A_intro	*>A_intro	*>A_intro
2i	C#:min	0.65	newline	r	2C# 2e 2g#
2v	G#:min	2.226	.	r	2G# 2b 2dd#
=2	=2	=2	=2	=2	=2
2v	G#:min	3.803	.	r	2G# 2b 2dd#
2-VI7	A:maj7	5.379	.	r	2A- 2cc 2ee- 2gg#
=3	=3	=3	=3	=3	=3
2i	C#:min	6.956	newline	flute	2C# 2e 2g#
2v	G#:min	8.591	.	flute	2G# 2b 2dd#
=4	=4	=4	=4	=4	=4
2v	G#:min	10.226	.	flute	2G# 2b 2dd#
2-VI7	A:maj7	11.861	.	flute	2A- 2cc 2ee- 2gg#
=5	=5	=5	=5	=5	=5
2i	C#:min	13.496	.	flute	2C# 2e 2g#
2v	G#:min	15.131	.	flute	2G# 2b 2dd#
=6	=6	=6	=6	=6	=6
2v	G#:min	16.766	.	flute	2G# 2b 2dd#
2-VI7	A:maj7	18.401	.	flute	2A- 2cc 2ee- 2gg#
=7	=7	=7	=7	=7	=7
2i	C#:min	20.037	newline	flute	2C# 2e 2g#
2v	G#:min	21.644	.	flute	2G# 2b 2dd#
=8	=8	=8	=8	=8	=8
2v	G#:min	23.251	.	flute	2G# 2b 2dd#
2-VI7	A:maj7	24.858	.	flute	2A- 2cc 2ee- 2gg#
=9	=9	=9	=9	=9	=9
2i	C#:min	26.465	.	flute	2C# 2e 2g#
2v	G#:min	28.073	.	flute	2G# 2b 2dd#
=10	=10	=10	=10	=10	=10
2v	G#:min	29.68	.	flute	2G# 2b 2dd#
2-VI7	A:maj7	31.287	.	flute	2A- 2cc 2ee- 2gg#
=11	=11	=11	=11	=11	=11
2i	C#:min	32.894	newline	flute	2C# 2e 2g#
2v	G#:min	34.509	.	flute	2G# 2b 2dd#
=12	=12	=12	=12	=12	=12
2v	G#:min	36.124	.	flute	2G# 2b 2dd#
2-VI7	A:maj7	37.739	.	flute	2A- 2cc 2ee- 2gg#
=13	=13	=13	=13	=13	=13
2i	C#:min	39.354	.	flute	2C# 2e 2g#
2v	G#:min	40.968	.	flute	2G# 2b 2dd#
=14	=14	=14	=14	=14	=14
2v	G#:min	42.583	.	flute	2G# 2b 2dd#
2-VI7	A:maj7	44.198	.	flute	2A- 2cc 2ee- 2gg#
=15	=15	=15	=15	=15	=15
*>B_instrumental	*>B_instrumental	*>B_instrumental	*>B_instrumental	*>B_instrumental	*>B_instrumental
2.i	C#:min	45.813	newline	trumpet	2C# 2e 2g#
4-VII	B:maj	48.183	.	trumpet	4B 4dd# 4ff#
=16	=16	=16	=16	=16	=16
2.i	C#:min	48.973	.	trumpet	2C# 2e 2g#
4-VII	B:maj	51.343	.	trumpet	4B 4dd# 4ff#
=17	=17	=17	=17	=17	=17
2.i	C#:min	52.133	.	trumpet	2C# 2e 2g#
4-VII	B:maj	54.503	.	trumpet	4B 4dd# 4ff#
=18	=18	=18	=18	=18	=18
2.i	C#:min	55.293	.	trumpet	2C# 2e 2g#
4-VII	B:maj	57.663	.	trumpet	4B 4dd# 4ff#
=19	=19	=19	=19	=19	=19
2.i	C#:min	58.453	newline	trumpet	2C# 2e 2g#
4-VII	B:maj	60.837	.	trumpet	4B 4dd# 4ff#
=20	=20	=20	=20	=20	=20
2.i	C#:min	61.632	.	trumpet	2C# 2e 2g#
4-VII	B:maj	64.015	.	trumpet	4B 4dd# 4ff#
=21	=21	=21	=21	=21	=21
2.i	C#:min	64.81	.	trumpet	2C# 2e 2g#
4-VII	B:maj	67.193	.	trumpet	4B 4dd# 4ff#
=22	=22	=22	=22	=22	=22
2.i	C#:min	67.988	.	trumpet	2C# 2e 2g#
4-VII	B:maj	70.372	.	trumpet	4B 4dd# 4ff#
=23	=23	=23	=23	=23	=23
2.i	C#:min	71.166	newline	trumpet	2C# 2e 2g#
4-VII	B:maj	73.564	.	trumpet	4B 4dd# 4ff#
=24	=24	=24	=24	=24	=24
2.i	C#:min	74.364	.	trumpet	2C# 2e 2g#
4-VII	B:maj	76.762	.	trumpet	4B 4dd# 4ff#
=25	=25	=25	=25	=25	=25
2.i	C#:min	77.561	.	trumpet	2C# 2e 2g#
4-VII	B:maj	79.959	.	trumpet	4B 4dd# 4ff#
=26	=26	=26	=26	=26	=26
2.i	C#:min	80.759	.	trumpet	2C# 2e 2g#
4-VII	B:maj	83.157	.	trumpet	4B 4dd# 4ff#
=27	=27	=27	=27	=27	=27
*>C_interlude	*>C_interlude	*>C_interlude	*>C_interlude	*>C_interlude	*>C_interlude
2id	C#:min/b7	83.956	newline	trumpet	2c# 2e 2g#
2-VIId	B:maj/b7	85.548	.	trumpet	2b 2dd# 2ff#
=28	=28	=28	=28	=28	=28
2v	G#:min	87.14	.	trumpet	2G# 2b 2dd#
2i	C#:min	88.731	.	trumpet	2C# 2e 2g#
=29	=29	=29	=29	=29	=29
2id	C#:min/b7	90.323	.	trumpet	2c# 2e 2g#
2-VIId	B:maj/b7	91.915	.	trumpet	2b 2dd# 2ff#
=30	=30	=30	=30	=30	=30
2v	G#:min	93.506	.	trumpet	2G# 2b 2dd#
2i	C#:min	95.098	.	trumpet	2C# 2e 2g#
=31	=31	=31	=31	=31	=31
2id	C#:min/b7	96.69	newline	trumpet	2c# 2e 2g#
2-VIId	B:maj/b7	98.258	.	trumpet	2b 2dd# 2ff#
=32	=32	=32	=32	=32	=32
2v	G#:min	99.827	.	trumpet	2G# 2b 2dd#
2i	C#:min	101.395	.	trumpet	2C# 2e 2g#
=33	=33	=33	=33	=33	=33
2id	C#:min/b7	102.963	.	trumpet	2c# 2e 2g#
2-VIId	B:maj/b7	104.532	.	trumpet	2b 2dd# 2ff#
=34	=34	=34	=34	=34	=34
2v	G#:min	106.1	.	trumpet	2G# 2b 2dd#
2i	C#:min	107.669	.	trumpet	2C# 2e 2g#
=35	=35	=35	=35	=35	=35
*>D_trans	*>D_trans	*>D_trans	*>D_trans	*>D_trans	*>D_trans
1v	G#:sus4	109.237	newline	organ	1G# 1b 1dd#
=36	=36	=36	=36	=36	=36
1v	G#:sus4	112.536	.	organ	1G# 1b 1dd#
=37	=37	=37	=37	=37	=37
*>E_verse	*>E_verse	*>E_verse	*>E_verse	*>E_verse	*>E_verse
1i	C#:min	115.835	newline	voice	1C# 1e 1g#
=38	=38	=38	=38	=38	=38
1i7	C#:min9	118.914	.	voice	1C# 1e 1g# 1b#
=39	=39	=39	=39	=39	=39
1i7	C#:min9	121.994	.	voice	1C# 1e 1g# 1b#
=40	=40	=40	=40	=40	=40
1i	C#:min	125.074	.	voice	1C# 1e 1g#
=41	=41	=41	=41	=41	=41
1-VI7	A:maj7	128.153	newline	voice	1A- 1cc 1ee- 1gg#
=42	=42	=42	=42	=42	=42
1-VI7	A:maj7	131.195	.	voice	1A- 1cc 1ee- 1gg#
=43	=43	=43	=43	=43	=43
1V	G#:maj	134.236	.	voice	1G# 1b# 1dd#
=44	=44	=44	=44	=44	=44
1V	G#:maj	137.277	.	voice	1G# 1b# 1dd#
=45	=45	=45	=45	=45	=45
1i	C#:min	140.318	newline	voice	1C# 1e 1g#
=46	=46	=46	=46	=46	=46
2i	C#:min	143.326	.	voice	2C# 2e 2g#
2id	C#:min/b7	144.83	.	voice	2c# 2e 2g#
=47	=47	=47	=47	=47	=47
1-VI7	A:maj7	146.334	.	voice	1A- 1cc 1ee- 1gg#
=48	=48	=48	=48	=48	=48
1-VI7	A:maj7	149.341	.	voice	1A- 1cc 1ee- 1gg#
=49	=49	=49	=49	=49	=49
1-VI7	A:maj7	152.349	newline	voice	1A- 1cc 1ee- 1gg#
=50	=50	=50	=50	=50	=50
2-IIIb	E:maj/3	155.355	.	voice	2e- 2G 2b-
2-IIIm7b	E:7/3	156.857	.	voice	2e- 2G 2b- 2dd#
=51	=51	=51	=51	=51	=51
1-VI7	A:maj7	158.36	newline	voice	1A- 1cc 1ee- 1gg#
=52	=52	=52	=52	=52	=52
1-VI7	A:maj7	161.354	.	voice	1A- 1cc 1ee- 1gg#
=53	=53	=53	=53	=53	=53
1v	G#:min(11)	164.348	.	voice	1G# 1b 1dd#
=54	=54	=54	=54	=54	=54
2i	C#:min	167.342	.	voice	2C# 2e 2g#
2IV7	F#:7	168.839	.	voice	2F# 2a# 2cc# 2ee
=55	=55	=55	=55	=55	=55
*>F_chorus	*>F_chorus	*>F_chorus	*>F_chorus	*>F_chorus	*>F_chorus
1id	C#:min/b7	170.336	newline	voice	1c# 1e 1g#
=56	=56	=56	=56	=56	=56
1-VII	B:sus4(b7)	173.311	.	voice	1B 1dd# 1ff#
=57	=57	=57	=57	=57	=57
1-VII	B:sus4(b7)	176.286	.	voice	1B 1dd# 1ff#
=58	=58	=58	=58	=58	=58
*M2/4	*M2/4	*M2/4	*M2/4	*M2/4	*M2/4
2-VII	B:sus4(b7)	179.261	.	voice	2B 2dd# 2ff#
=59	=59	=59	=59	=59	=59
*M4/4	*M4/4	*M4/4	*M4/4	*M4/4	*M4/4
1id	C#:min/b7	180.749	newline	voice	1c# 1e 1g#
=60	=60	=60	=60	=60	=60
1-VII	B:sus4(b7)	183.809	.	voice	1B 1dd# 1ff#
=61	=61	=61	=61	=61	=61
1-VII	B:sus4(b7)	186.869	.	voice	1B 1dd# 1ff#
=62	=62	=62	=62	=62	=62
*>E_verse	*>E_verse	*>E_verse	*>E_verse	*>E_verse	*>E_verse
1i	C#:min	189.928	newline	voice	1C# 1e 1g#
=63	=63	=63	=63	=63	=63
1i7	C#:min9	192.922	.	voice	1C# 1e 1g# 1b#
=64	=64	=64	=64	=64	=64
1i7	C#:min9	195.915	.	voice	1C# 1e 1g# 1b#
=65	=65	=65	=65	=65	=65
1i	C#:min	198.909	.	voice	1C# 1e 1g#
=66	=66	=66	=66	=66	=66
1-VI7	A:maj7	201.902	newline	voice	1A- 1cc 1ee- 1gg#
=67	=67	=67	=67	=67	=67
1-VI7	A:maj7	204.806	.	voice	1A- 1cc 1ee- 1gg#
=68	=68	=68	=68	=68	=68
1V	G#:maj	207.71	.	voice	1G# 1b# 1dd#
=69	=69	=69	=69	=69	=69
1V	G#:maj	210.614	.	voice	1G# 1b# 1dd#
=70	=70	=70	=70	=70	=70
1i	C#:min	213.518	newline	voice	1C# 1e 1g#
=71	=71	=71	=71	=71	=71
2i	C#:min	216.424	.	voice	2C# 2e 2g#
2id	C#:min/b7	217.877	.	voice	2c# 2e 2g#
=72	=72	=72	=72	=72	=72
1-VI7	A:maj7	219.331	.	voice	1A- 1cc 1ee- 1gg#
=73	=73	=73	=73	=73	=73
1-VI7	A:maj7	222.237	.	voice	1A- 1cc 1ee- 1gg#
=74	=74	=74	=74	=74	=74
1-VI7	A:maj7	225.143	newline	voice	1A- 1cc 1ee- 1gg#
=75	=75	=75	=75	=75	=75
2-IIIb	E:maj/3	228.004	.	voice	2e- 2G 2b-
2-IIIm7b	E:7/3	229.434	.	voice	2e- 2G 2b- 2dd#
=76	=76	=76	=76	=76	=76
1-VI7	A:maj7	230.864	newline	voice	1A- 1cc 1ee- 1gg#
=77	=77	=77	=77	=77	=77
1-VI7	A:maj7	233.747	.	voice	1A- 1cc 1ee- 1gg#
=78	=78	=78	=78	=78	=78
1v	G#:min(11)	236.629	.	voice	1G# 1b 1dd#
=79	=79	=79	=79	=79	=79
2i	C#:min	239.511	.	voice	2C# 2e 2g#
2IV7	F#:7	240.952	.	voice	2F# 2a# 2cc# 2ee
=80	=80	=80	=80	=80	=80
*>F_chorus	*>F_chorus	*>F_chorus	*>F_chorus	*>F_chorus	*>F_chorus
1id	C#:min/b7	242.393	newline	voice	1c# 1e 1g#
=81	=81	=81	=81	=81	=81
1-VII	B:sus4(b7)	245.209	.	voice	1B 1dd# 1ff#
=82	=82	=82	=82	=82	=82
1-VII	B:sus4(b7)	248.025	.	voice	1B 1dd# 1ff#
=83	=83	=83	=83	=83	=83
*M2/4	*M2/4	*M2/4	*M2/4	*M2/4	*M2/4
2-VII	B:sus4(b7)	250.841	.	voice	2B 2dd# 2ff#
=84	=84	=84	=84	=84	=84
*M4/4	*M4/4	*M4/4	*M4/4	*M4/4	*M4/4
1id	C#:min/b7	252.249	newline	voice	1c# 1e 1g#
=85	=85	=85	=85	=85	=85
1-VII	B:sus4(b7)	255.049	.	voice	1B 1dd# 1ff#
=86	=86	=86	=86	=86	=86
1-VII	B:sus4(b7)	257.849	.	voice	1B 1dd# 1ff#
=87	=87	=87	=87	=87	=87
*>G_solo	*>G_solo	*>G_solo	*>G_solo	*>G_solo	*>G_solo
1i7	C#:min7	260.649	newline	organ	1C# 1e 1g# 1b#
=88	=88	=88	=88	=88	=88
1IV	F#:maj6	263.482	.	organ	1F# 1a# 1cc#
=89	=89	=89	=89	=89	=89
1i7	C#:min7	266.315	.	organ	1C# 1e 1g# 1b#
=90	=90	=90	=90	=90	=90
1IV	F#:maj6	269.147	.	organ	1F# 1a# 1cc#
=91	=91	=91	=91	=91	=91
1i7	C#:min7	271.98	newline	organ	1C# 1e 1g# 1b#
=92	=92	=92	=92	=92	=92
1IV	F#:maj6	274.679	.	organ	1F# 1a# 1cc#
=93	=93	=93	=93	=93	=93
1i7	C#:min7	277.379	newline	guitar	1C# 1e 1g# 1b#
=94	=94	=94	=94	=94	=94
1IV	F#:maj6	280.051	.	guitar	1F# 1a# 1cc#
=95	=95	=95	=95	=95	=95
1i7	C#:min7	282.723	.	guitar	1C# 1e 1g# 1b#
=96	=96	=96	=96	=96	=96
1IV	F#:maj6	285.396	.	guitar	1F# 1a# 1cc#
=97	=97	=97	=97	=97	=97
1i7	C#:min7	288.068	newline	guitar	1C# 1e 1g# 1b#
=98	=98	=98	=98	=98	=98
1IV	F#:maj6	290.71	.	guitar	1F# 1a# 1cc#
=99	=99	=99	=99	=99	=99
1i7	C#:min7	293.353	.	guitar	1C# 1e 1g# 1b#
=100	=100	=100	=100	=100	=100
1IV	F#:maj6	295.995	.	guitar	1F# 1a# 1cc#
=101	=101	=101	=101	=101	=101
1i7	C#:min7	298.637	newline	guitar	1C# 1e 1g# 1b#
=102	=102	=102	=102	=102	=102
1IV	F#:maj6	301.257	.	guitar	1F# 1a# 1cc#
=103	=103	=103	=103	=103	=103
1i7	C#:min7	303.876	.	guitar	1C# 1e 1g# 1b#
=104	=104	=104	=104	=104	=104
1IV	F#:maj6	306.496	.	guitar	1F# 1a# 1cc#
=105	=105	=105	=105	=105	=105
1i7	C#:min7	309.115	newline	guitar	1C# 1e 1g# 1b#
=106	=106	=106	=106	=106	=106
1IV	F#:maj6	311.741	.	guitar	1F# 1a# 1cc#
=107	=107	=107	=107	=107	=107
1i7	C#:min7	314.367	.	guitar	1C# 1e 1g# 1b#
=108	=108	=108	=108	=108	=108
1IV	F#:maj6	316.993	.	guitar	1F# 1a# 1cc#
=109	=109	=109	=109	=109	=109
1i7	C#:min7	319.618	newline	guitar	1C# 1e 1g# 1b#
=110	=110	=110	=110	=110	=110
1IV	F#:maj6	322.199	.	guitar	1F# 1a# 1cc#
=111	=111	=111	=111	=111	=111
1i7	C#:min7	324.779	.	guitar	1C# 1e 1g# 1b#
=112	=112	=112	=112	=112	=112
1IV	F#:maj6	327.359	.	guitar	1F# 1a# 1cc#
=113	=113	=113	=113	=113	=113
1i7	C#:min7	329.939	newline	guitar	1C# 1e 1g# 1b#
=114	=114	=114	=114	=114	=114
1IV	F#:maj6	332.531	.	guitar	1F# 1a# 1cc#
=115	=115	=115	=115	=115	=115
1i7	C#:min7	335.124	.	guitar	1C# 1e 1g# 1b#
=116	=116	=116	=116	=116	=116
1IV	F#:maj6	337.716	.	guitar	1F# 1a# 1cc#
=117	=117	=117	=117	=117	=117
1i7	C#:min7	340.308	newline	guitar	1C# 1e 1g# 1b#
=118	=118	=118	=118	=118	=118
1IV	F#:maj6	342.923	.	guitar	1F# 1a# 1cc#
=119	=119	=119	=119	=119	=119
1i7	C#:min7	345.537	.	guitar	1C# 1e 1g# 1b#
=120	=120	=120	=120	=120	=120
1IV	F#:maj6	348.151	.	guitar	1F# 1a# 1cc#
=121	=121	=121	=121	=121	=121
1i7	C#:min7	350.765	newline	guitar	1C# 1e 1g# 1b#
=122	=122	=122	=122	=122	=122
1IV	F#:maj6	353.368	.	guitar	1F# 1a# 1cc#
=123	=123	=123	=123	=123	=123
1i7	C#:min7	355.971	.	guitar	1C# 1e 1g# 1b#
=124	=124	=124	=124	=124	=124
1IV	F#:maj6	358.574	.	guitar	1F# 1a# 1cc#
=125	=125	=125	=125	=125	=125
1i7	C#:min7	361.177	newline	guitar	1C# 1e 1g# 1b#
=126	=126	=126	=126	=126	=126
1IV	F#:maj6	363.747	.	guitar	1F# 1a# 1cc#
=127	=127	=127	=127	=127	=127
1i7	C#:min7	366.318	.	guitar	1C# 1e 1g# 1b#
=128	=128	=128	=128	=128	=128
1IV	F#:maj6	368.888	.	guitar	1F# 1a# 1cc#
=129	=129	=129	=129	=129	=129
1i7	C#:min7	371.458	newline	guitar	1C# 1e 1g# 1b#
=130	=130	=130	=130	=130	=130
1IV	F#:maj6	374.027	.	guitar	1F# 1a# 1cc#
=131	=131	=131	=131	=131	=131
1i7	C#:min7	376.596	.	guitar	1C# 1e 1g# 1b#
=132	=132	=132	=132	=132	=132
1IV	F#:maj6	379.165	.	guitar	1F# 1a# 1cc#
=133	=133	=133	=133	=133	=133
1i7	C#:min7	381.734	newline	guitar	1C# 1e 1g# 1b#
=134	=134	=134	=134	=134	=134
1IV	F#:maj6	384.289	.	guitar	1F# 1a# 1cc#
=135	=135	=135	=135	=135	=135
1i7	C#:min7	386.844	.	guitar	1C# 1e 1g# 1b#
=136	=136	=136	=136	=136	=136
1IV	F#:maj6	389.399	.	guitar	1F# 1a# 1cc#
=137	=137	=137	=137	=137	=137
1i7	C#:min7	391.954	newline	guitar	1C# 1e 1g# 1b#
=138	=138	=138	=138	=138	=138
1IV	F#:maj6	394.508	.	guitar	1F# 1a# 1cc#
=139	=139	=139	=139	=139	=139
1i7	C#:min7	397.061	.	guitar	1C# 1e 1g# 1b#
=140	=140	=140	=140	=140	=140
1IV	F#:maj6	399.615	.	guitar	1F# 1a# 1cc#
=141	=141	=141	=141	=141	=141
1i7	C#:min7	402.169	newline	guitar	1C# 1e 1g# 1b#
=142	=142	=142	=142	=142	=142
1IV	F#:maj6	404.719	.	guitar	1F# 1a# 1cc#
=143	=143	=143	=143	=143	=143
1i7	C#:min7	407.268	.	guitar	1C# 1e 1g# 1b#
=144	=144	=144	=144	=144	=144
1IV	F#:maj6	409.818	.	guitar	1F# 1a# 1cc#
=145	=145	=145	=145	=145	=145
1i7	C#:min7	412.368	newline	guitar	1C# 1e 1g# 1b#
=146	=146	=146	=146	=146	=146
1IV	F#:maj6	414.869	.	guitar	1F# 1a# 1cc#
=147	=147	=147	=147	=147	=147
1i7	C#:min7	417.369	.	guitar	1C# 1e 1g# 1b#
=148	=148	=148	=148	=148	=148
1IV	F#:maj6	419.87	.	guitar	1F# 1a# 1cc#
=149	=149	=149	=149	=149	=149
1i7	C#:min7	422.371	newline	guitar	1C# 1e 1g# 1b#
=150	=150	=150	=150	=150	=150
1IV	F#:maj6	424.882	.	guitar	1F# 1a# 1cc#
=151	=151	=151	=151	=151	=151
1i7	C#:min7	427.393	.	guitar	1C# 1e 1g# 1b#
=152	=152	=152	=152	=152	=152
1IV	F#:maj6	429.904	.	guitar	1F# 1a# 1cc#
=153	=153	=153	=153	=153	=153
1i7	C#:min7	432.415	newline	guitar	1C# 1e 1g# 1b#
=154	=154	=154	=154	=154	=154
1IV	F#:maj6	434.955	.	guitar	1F# 1a# 1cc#
=155	=155	=155	=155	=155	=155
1i7	C#:min7	437.495	.	guitar	1C# 1e 1g# 1b#
=156	=156	=156	=156	=156	=156
1IV	F#:maj6	440.035	.	guitar	1F# 1a# 1cc#
=157	=157	=157	=157	=157	=157
*>G_instrumental	*>G_instrumental	*>G_instrumental	*>G_instrumental	*>G_instrumental	*>G_instrumental
1i7	C#:min7	442.575	newline	guitar	1C# 1e 1g# 1b#
=158	=158	=158	=158	=158	=158
1IV	F#:maj6	445.107	.	guitar	1F# 1a# 1cc#
=159	=159	=159	=159	=159	=159
1i7	C#:min7	447.64	.	guitar	1C# 1e 1g# 1b#
=160	=160	=160	=160	=160	=160
1IV	F#:maj6	450.172	.	guitar	1F# 1a# 1cc#
=161	=161	=161	=161	=161	=161
1i7	C#:min7	452.704	newline	guitar	1C# 1e 1g# 1b#
=162	=162	=162	=162	=162	=162
1IV	F#:maj6	455.251	.	guitar	1F# 1a# 1cc#
=163	=163	=163	=163	=163	=163
1i7	C#:min7	457.798	.	guitar	1C# 1e 1g# 1b#
=164	=164	=164	=164	=164	=164
1IV	F#:maj6	460.345	.	guitar	1F# 1a# 1cc#
=165	=165	=165	=165	=165	=165
1i7	C#:min7	462.892	newline	guitar	1C# 1e 1g# 1b#
=166	=166	=166	=166	=166	=166
1IV	F#:maj6	465.391	.	guitar	1F# 1a# 1cc#
=167	=167	=167	=167	=167	=167
1i7	C#:min7	467.891	.	guitar	1C# 1e 1g# 1b#
=168	=168	=168	=168	=168	=168
1IV	F#:maj6	470.391	.	guitar	1F# 1a# 1cc#
=169	=169	=169	=169	=169	=169
1i7	C#:min7	472.89	newline	guitar	1C# 1e 1g# 1b#
=170	=170	=170	=170	=170	=170
1IV	F#:maj6	475.414	.	guitar	1F# 1a# 1cc#
=171	=171	=171	=171	=171	=171
1i7	C#:min7	477.938	.	guitar	1C# 1e 1g# 1b#
=172	=172	=172	=172	=172	=172
1IV	F#:maj6	480.462	.	guitar	1F# 1a# 1cc#
=173	=173	=173	=173	=173	=173
1i7	C#:min7	482.986	newline	guitar	1C# 1e 1g# 1b#
=174	=174	=174	=174	=174	=174
1IV	F#:maj6	485.48	.	guitar	1F# 1a# 1cc#
=175	=175	=175	=175	=175	=175
1i7	C#:min7	487.973	.	guitar	1C# 1e 1g# 1b#
=176	=176	=176	=176	=176	=176
1IV	F#:maj6	490.466	.	guitar	1F# 1a# 1cc#
=177	=177	=177	=177	=177	=177
1i7	C#:min7	492.959	newline	guitar	1C# 1e 1g# 1b#
=178	=178	=178	=178	=178	=178
1IV	F#:maj6	495.452	.	guitar	1F# 1a# 1cc#
=179	=179	=179	=179	=179	=179
1i7	C#:min7	497.946	.	guitar	1C# 1e 1g# 1b#
=180	=180	=180	=180	=180	=180
1IV	F#:maj6	500.439	.	guitar	1F# 1a# 1cc#
=181	=181	=181	=181	=181	=181
1i7	C#:min7	502.933	newline	guitar	1C# 1e 1g# 1b#
=182	=182	=182	=182	=182	=182
1IV	F#:maj6	505.414	.	guitar	1F# 1a# 1cc#
=183	=183	=183	=183	=183	=183
1i7	C#:min7	507.896	.	guitar	1C# 1e 1g# 1b#
=184	=184	=184	=184	=184	=184
1IV	F#:maj6	510.377	.	guitar	1F# 1a# 1cc#
=185	=185	=185	=185	=185	=185
1i7	C#:min7	512.859	newline	guitar	1C# 1e 1g# 1b#
=186	=186	=186	=186	=186	=186
1IV	F#:maj6	515.35	.	guitar	1F# 1a# 1cc#
=187	=187	=187	=187	=187	=187
1i7	C#:min7	517.842	.	guitar	1C# 1e 1g# 1b#
=188	=188	=188	=188	=188	=188
1IV	F#:maj6	520.333	.	guitar	1F# 1a# 1cc#
=189	=189	=189	=189	=189	=189
1i7	C#:min7	522.825	newline	guitar	1C# 1e 1g# 1b#
=190	=190	=190	=190	=190	=190
1IV	F#:maj6	525.316	.	guitar	1F# 1a# 1cc#
=191	=191	=191	=191	=191	=191
1i7	C#:min7	527.807	.	guitar	1C# 1e 1g# 1b#
=192	=192	=192	=192	=192	=192
1IV	F#:maj6	530.298	.	guitar	1F# 1a# 1cc#
=193	=193	=193	=193	=193	=193
*>A2_interlude	*>A2_interlude	*>A2_interlude	*>A2_interlude	*>A2_interlude	*>A2_interlude
1v	G#:min(11)	532.789	newline	organ	1G# 1b 1dd#
=194	=194	=194	=194	=194	=194
2i	C#:min	535.453	.	organ	2C# 2e 2g#
2IV	F#:maj	536.785	.	organ	2F# 2a# 2cc#
=195	=195	=195	=195	=195	=195
1v	G#:min(11)	538.117	.	organ	1G# 1b 1dd#
=196	=196	=196	=196	=196	=196
2i	C#:min	540.781	.	organ	2C# 2e 2g#
2IV	F#:maj	542.113	.	organ	2F# 2a# 2cc#
=197	=197	=197	=197	=197	=197
1v	G#:min(11)	543.445	newline	flute	1G# 1b 1dd#
=198	=198	=198	=198	=198	=198
2i	C#:min	546.082	.	flute	2C# 2e 2g#
2IV	F#:maj	547.4	.	flute	2F# 2a# 2cc#
=199	=199	=199	=199	=199	=199
1v	G#:min(11)	548.718	.	flute	1G# 1b 1dd#
=200	=200	=200	=200	=200	=200
2i	C#:min	551.354	.	flute	2C# 2e 2g#
2IV	F#:maj	552.672	.	flute	2F# 2a# 2cc#
=201	=201	=201	=201	=201	=201
1v	G#:min(11)	553.99	newline	flute	1G# 1b 1dd#
=202	=202	=202	=202	=202	=202
2i	C#:min	556.59	.	flute	2C# 2e 2g#
2IV	F#:maj	557.89	.	flute	2F# 2a# 2cc#
=203	=203	=203	=203	=203	=203
1v	G#:min(11)	559.19	.	flute	1G# 1b 1dd#
=204	=204	=204	=204	=204	=204
2i	C#:min	561.79	.	flute	2C# 2e 2g#
2IV	F#:maj	563.09	.	flute	2F# 2a# 2cc#
=205	=205	=205	=205	=205	=205
*>F_chorus	*>F_chorus	*>F_chorus	*>F_chorus	*>F_chorus	*>F_chorus
1id	C#:min/b7	564.39	newline	voice	1c# 1e 1g#
=206	=206	=206	=206	=206	=206
1-VII	B:sus4(b7)	566.98	.	voice	1B 1dd# 1ff#
=207	=207	=207	=207	=207	=207
1-VII	B:sus4(b7)	569.571	.	voice	1B 1dd# 1ff#
=208	=208	=208	=208	=208	=208
*M2/4	*M2/4	*M2/4	*M2/4	*M2/4	*M2/4
2-VII	B:sus4(b7)	572.161	.	voice	2B 2dd# 2ff#
=209	=209	=209	=209	=209	=209
*M4/4	*M4/4	*M4/4	*M4/4	*M4/4	*M4/4
1id	C#:min/b7	573.456	newline	voice	1c# 1e 1g#
=210	=210	=210	=210	=210	=210
1-VII	B:sus4(b7)	576.031	.	voice	1B 1dd# 1ff#
=211	=211	=211	=211	=211	=211
1-VII	B:sus4(b7)	578.605	.	voice	1B 1dd# 1ff#
=212	=212	=212	=212	=212	=212
*>A_outro	*>A_outro	*>A_outro	*>A_outro	*>A_outro	*>A_outro
2i	C#:min	581.179	newline	guitar	2C# 2e 2g#
2v	G#:min	582.588	.	guitar	2G# 2b 2dd#
=213	=213	=213	=213	=213	=213
2v	G#:min	583.997	.	guitar	2G# 2b 2dd#
2-VI7	A:maj7	585.406	.	guitar	2A- 2cc 2ee- 2gg#
=214	=214	=214	=214	=214	=214
2i	C#:min	586.815	.	guitar	2C# 2e 2g#
2v	G#:min	588.223	.	guitar	2G# 2b 2dd#
=215	=215	=215	=215	=215	=215
2v	G#:min	589.632	.	guitar	2G# 2b 2dd#
2-VI7	A:maj7	591.041	.	guitar	2A- 2cc 2ee- 2gg#
=216	=216	=216	=216	=216	=216
2i	C#:min	592.45	newline	guitar	2C# 2e 2g#
2v	G#:min	593.867	.	guitar	2G# 2b 2dd#
=217	=217	=217	=217	=217	=217
2v	G#:min	595.284	.	guitar	2G# 2b 2dd#
2-VI7	A:maj7	596.702	.	guitar	2A- 2cc 2ee- 2gg#
=218	=218	=218	=218	=218	=218
2i	C#:min	598.119	.	guitar	2C# 2e 2g#
2v	G#:min	599.536	.	guitar	2G# 2b 2dd#
=219	=219	=219	=219	=219	=219
2v	G#:min	600.954	.	guitar	2G# 2b 2dd#
2-VI7	A:maj7	602.371	.	guitar	2A- 2cc 2ee- 2gg#
=220	=220	=220	=220	=220	=220
2i	C#:min	603.788	newline	guitar	2C# 2e 2g#
2v	G#:min	605.284	.	guitar	2G# 2b 2dd#
=221	=221	=221	=221	=221	=221
2v	G#:min	606.781	.	guitar	2G# 2b 2dd#
2-VI7	A:maj7	608.277	.	guitar	2A- 2cc 2ee- 2gg#
=222	=222	=222	=222	=222	=222
2i	C#:min	609.773	.	guitar	2C# 2e 2g#
2v	G#:min	611.269	.	guitar	2G# 2b 2dd#
=223	=223	=223	=223	=223	=223
2v	G#:min	612.766	.	guitar	2G# 2b 2dd#
2-VI7	A:maj7	614.262	.	guitar	2A- 2cc 2ee- 2gg#
=224	=224	=224	=224	=224	=224
2i	C#:min	615.758	newline	guitar	2C# 2e 2g#
2v	G#:min	617.581	.	guitar	2G# 2b 2dd#
=225	=225	=225	=225	=225	=225
2v	G#:min	619.405	.	guitar	2G# 2b 2dd#
2-VI7	A:maj7	621.228	.	guitar	2A- 2cc 2ee- 2gg#
=226	=226	=226	=226	=226	=226
2i	C#:min	623.051	.	guitar	2C# 2e 2g#
2v	G#:min	624.874	.	guitar	2G# 2b 2dd#
=227	=227	=227	=227	=227	=227
2v	G#:min	626.697	.	guitar	2G# 2b 2dd#
2-VI7	A:maj7	628.52	.	guitar	2A- 2cc 2ee- 2gg#
=228	=228	=228	=228	=228	=228
2i	C#:min	630.343	newline	guitar	2C# 2e 2g#
2v	G#:min	632.533	.	guitar	2G# 2b 2dd#
=229	=229	=229	=229	=229	=229
2v	G#:min	634.724	.	guitar	2G# 2b 2dd#
2-VI7	A:maj7	636.914	.	guitar	2A- 2cc 2ee- 2gg#
=230	=230	=230	=230	=230	=230
2i	C#:min	639.104	.	guitar	2C# 2e 2g#
2v	G#:min	641.294	.	guitar	2G# 2b 2dd#
=231	=231	=231	=231	=231	=231
2v	G#:min	643.484	.	guitar	2G# 2b 2dd#
2-VI7	A:maj7	645.675	.	guitar	2A- 2cc 2ee- 2gg#
=232	=232	=232	=232	=232	=232
2i	C#:min	647.865	newline	guitar	2C# 2e 2g#
2v	G#:min	650.055	.	guitar	2G# 2b 2dd#
=233	=233	=233	=233	=233	=233
2v	G#:min	652.244	.	guitar	2G# 2b 2dd#
2-VI7	A:maj7	654.434	.	guitar	2A- 2cc 2ee- 2gg#
=234	=234	=234	=234	=234	=234
2i	C#:min	656.624	.	guitar	2C# 2e 2g#
2v	G#:min	658.814	.	guitar	2G# 2b 2dd#
=235	=235	=235	=235	=235	=235
2v	G#:min	661.004	.	guitar	2G# 2b 2dd#
2-VI7	A:maj7	663.193	.	guitar	2A- 2cc 2ee- 2gg#
1r;	N	671.405	.	r	1r;
1r;	N	673.802	.	r	1r;
*-	*-	*-	*-	*-	*-
!!!OTL: The Look Of Love
!!!COC: Isaac Hayes
!!!BillboardChartDate: 1971/03/06
!!!BillboardPeak: 79
!!!BillboardWeeksOnChart: 5
!!!SampleTargetRank: 84
!!!SampleActualRank: 82
!!!SampleID#: 0978
!!!RDF**harmony: **recip + pitch class of root + harmonic quality
!!!RDF**harte: Chris Harte's syntax, used by MIREX
!!!RDF**phrase: newline = linebreak in original McGill transcription
!!!RDF**timestamp: McGill audio timestamp in seconds
!!!RDF**leadinstrument: original McGill primary instrumentation annotation
!!!RDT: 2017/01/12/
!!!ENC: Nathaniel Condit-Schultz
!!!EST: Awating manual error checking and editing.
